web/packages/design/src/ResourceIcon/assets/lusha-light.svg

<svg width="72" height="72" viewBox="0 0 72 72" fill="none" xmlns="http://www.w3.org/2000/svg">
<g clip-path="url(#clip0_16904_17455)">
<path fill-rule="evenodd" clip-rule="evenodd" d="M57.5931 17.4754C57.5931 18.8483 57.4129 20.0992 57.0793 21.235C71.2091 29.5387 63.9357 56.5547 61.8065 63.4363C61.7478 63.6263 61.4213 63.5532 61.4274 63.3546C61.4966 61.0698 61.1411 57.8652 59.5737 54.7804C59.6208 55.1861 59.6448 55.5986 59.6448 56.017C59.6448 61.8902 54.8855 66.6512 49.0145 66.6512C43.1435 66.6512 38.3842 61.8902 38.3842 56.017C38.3842 54.9272 38.5478 53.8759 38.8524 52.886C38.7674 52.8636 38.6779 52.8409 38.5849 52.8179C37.9691 52.6667 37.3223 52.5476 36.8912 52.5476C36.462 52.5476 35.841 52.6639 35.2554 52.8115C35.1477 52.8386 35.045 52.8658 34.9494 52.8921C35.2529 53.8806 35.416 54.9302 35.416 56.0181C35.416 61.891 30.6566 66.6523 24.7857 66.6523C19.3572 66.6523 14.8791 62.5819 14.2348 57.3255C13.1395 61.6914 13.1138 66.4247 13.3027 71.8267C13.3086 71.9956 13.0913 72.0695 13.0069 71.923C8.27685 63.7096 3.919 46.6993 7.07017 34.1571C9.88997 22.9337 17.7893 17.5248 22.7497 15.6703C23.6528 6.86781 31.0875 0.00146484 40.1255 0.00146484C49.7726 0.00146484 57.5931 7.82483 57.5931 17.4754ZM20.2338 46.4053C21.6136 45.7502 23.1568 45.3836 24.7857 45.3836C28.5958 45.3836 31.9378 47.389 33.8145 50.4021C34.0161 50.3414 34.2899 50.2631 34.6017 50.1845C35.2249 50.0275 36.114 49.8395 36.8912 49.8395C37.6665 49.8395 38.5799 50.0291 39.2226 50.1869C39.521 50.2603 39.7868 50.3331 39.9912 50.3921C41.869 47.3841 45.2082 45.3828 49.0145 45.3828C49.4293 45.3828 49.8385 45.4066 50.2408 45.4528C46.5818 41.1196 45.155 35.0706 44.6389 31.2667C32.4171 36.5577 24.8612 41.4001 20.2338 46.4053ZM56.3646 56.017C56.3646 60.0794 53.0728 63.3707 49.0145 63.3707C44.9562 63.3707 41.6644 60.0794 41.6644 56.017C41.6644 51.9546 44.9562 48.663 49.0145 48.663C53.0728 48.663 56.3646 51.9546 56.3646 56.017ZM32.1357 56.0181C32.1357 60.0805 28.8439 63.3718 24.7857 63.3718C20.7275 63.3718 17.4356 60.0805 17.4356 56.0181C17.4356 51.9554 20.7275 48.6641 24.7857 48.6641C28.8439 48.6641 32.1357 51.9554 32.1357 56.0181Z" fill="black"/>
</g>
<defs>
<clipPath id="clip0_16904_17455">
<rect width="72" height="72" fill="white" transform="translate(0 0.00146484)"/>
</clipPath>
</defs>
</svg>

<svg xmlns="http://www.w3.org/2000/svg" width="72" height="72" fill="none" viewBox="0 0 72 72"><g clip-path="url(#a)"><path fill="#000" fill-rule="evenodd" d="M57.593 17.475c0 1.373-.18 2.624-.514 3.76 14.13 8.304 6.857 35.32 4.727 42.201-.058.19-.385.117-.379-.081.07-2.285-.286-5.49-1.853-8.575q.07.61.07 1.237c0 5.873-4.758 10.634-10.63 10.634-5.87 0-10.63-4.76-10.63-10.634 0-1.09.164-2.141.468-3.131l-.267-.068c-.616-.151-1.263-.27-1.694-.27-.429 0-1.05.116-1.636.264l-.306.08c.304.989.467 2.038.467 3.126 0 5.873-4.76 10.634-10.63 10.634-5.429 0-9.907-4.07-10.551-9.327-1.095 4.366-1.121 9.1-.932 14.502.006.169-.212.243-.296.096-4.73-8.213-9.088-25.224-5.937-37.766C9.89 22.934 17.79 17.525 22.75 15.67 23.653 6.868 31.087.001 40.126.001c9.647 0 17.467 7.824 17.467 17.474m-37.36 28.93a10.6 10.6 0 0 1 4.553-1.021c3.81 0 7.152 2.005 9.029 5.018.201-.06.475-.139.787-.218.623-.156 1.512-.344 2.29-.344.774 0 1.688.19 2.33.347.299.073.565.146.77.205a10.62 10.62 0 0 1 10.249-4.94c-3.66-4.332-5.086-10.381-5.602-14.185C32.417 36.557 24.86 41.4 20.234 46.405m36.132 9.612a7.35 7.35 0 0 1-7.35 7.354 7.35 7.35 0 0 1-7.35-7.354 7.35 7.35 0 0 1 7.35-7.354 7.35 7.35 0 0 1 7.35 7.354m-24.23.001a7.35 7.35 0 0 1-7.35 7.354 7.35 7.35 0 0 1-7.35-7.354 7.35 7.35 0 0 1 7.35-7.354 7.35 7.35 0 0 1 7.35 7.354" clip-rule="evenodd"/></g><defs><clipPath id="a"><path fill="#fff" d="M0 .001h72v72H0z"/></clipPath></defs></svg>
